resources/icons/assignment_ind_black_24dp.svg

<svg id="assignment_ind_black_24dp" xmlns="http://www.w3.org/2000/svg" width="24" height="24" viewBox="0 0 24 24">
  <path id="Path_311" data-name="Path 311" d="M0,0H24V24H0Z" fill="none"/>
  <path id="Path_312" data-name="Path 312" d="M19,3H14.82A2.988,2.988,0,0,0,9.18,3H5A2.006,2.006,0,0,0,3,5V19a2.006,2.006,0,0,0,2,2H19a2.006,2.006,0,0,0,2-2V5A2.006,2.006,0,0,0,19,3Zm-7-.25a.767.767,0,1,1-.55.25A.749.749,0,0,1,12,2.75ZM19,19H5V5H19ZM12,6a3,3,0,1,0,3,3A3.009,3.009,0,0,0,12,6Zm0,4a1,1,0,1,1,1-1A1,1,0,0,1,12,10ZM6,16.47V18H18V16.47c0-2.5-3.97-3.58-6-3.58S6,13.96,6,16.47ZM8.31,16A7.011,7.011,0,0,1,12,14.88,6.982,6.982,0,0,1,15.69,16Z" fill="#005699"/>
</svg>

<svg xmlns="http://www.w3.org/2000/svg" height="24px" viewBox="0 0 24 24" width="24px" fill="#005699"><path d="M0 0h24v24H0V0z" fill="none"/><path d="M19 3h-4.18C14.4 1.84 13.3 1 12 1s-2.4.84-2.82 2H5c-1.1 0-2 .9-2 2v14c0 1.1.9 2 2 2h14c1.1 0 2-.9 2-2V5c0-1.1-.9-2-2-2zm-7-.25c.22 0 .41.1.55.25.12.13.2.31.2.5 0 .41-.34.75-.75.75s-.75-.34-.75-.75c0-.19.08-.37.2-.5.14-.15.33-.25.55-.25zM19 19H5V5h14v14zM12 6c-1.65 0-3 1.35-3 3s1.35 3 3 3 3-1.35 3-3-1.35-3-3-3zm0 4c-.55 0-1-.45-1-1s.45-1 1-1 1 .45 1 1-.45 1-1 1zm-6 6.47V18h12v-1.53c0-2.5-3.97-3.58-6-3.58s-6 1.07-6 3.58zM8.31 16c.69-.56 2.38-1.12 3.69-1.12s3.01.56 3.69 1.12H8.31z"/></svg>
